X:71
T:Nina
C:John Krumm & Bob Stein 
M:6/8
K:A
|:"A"Acc "D"dff|"A"Acc "E"BGG| "A"Ace "F#m"agf|"Bm"edc "E"B2c|
"A"Acc "D"dff|"A"Acc "E"BGG|"A"Ace efe|1"E7"dcB "A"A3:|2"E7"dcB "A"Ace||
|:"D"f3 fed |fed fga| "A"e2e efe |edc "E7" B2c|
"A"Acc "Bm"Bdd| "A/C#"cee "D"dff|"E7"e2e efe|1"E7"dcB "A"Ace:|2"E7"dcB "A"A3|]
W:  Bob Stein. All rights reserved. Used by permission.
